icons/handshake.svg

<svg width="24" height="24" viewBox="0 0 24 24" fill="none" xmlns="http://www.w3.org/2000/svg">
<path d="M20.264 12.448L18.761 14.244L14.629 11.174L13.427 12.094C12.91 12.4915 12.2762 12.7073 11.624 12.708C10.9718 12.7076 10.3379 12.4917 9.821 12.094L9.312 11.704C9.22502 11.6375 9.15338 11.5531 9.10196 11.4565C9.05053 11.3598 9.02053 11.2533 9.014 11.144C9.00666 11.0349 9.02228 10.9255 9.05982 10.8229C9.09737 10.7202 9.15603 10.6266 9.232 10.548L12.907 6.79299C12.9763 6.72235 13.0589 6.66611 13.15 6.62749C13.2412 6.58888 13.339 6.56866 13.438 6.56799H17.258" stroke="white" stroke-width="2" stroke-linecap="round" stroke-linejoin="round"/>
<path d="M10.498 20L7.66801 19.277C7.55267 19.2476 7.44603 19.191 7.35701 19.112L5.23901 17.23" stroke="white" stroke-width="2" stroke-linecap="round" stroke-linejoin="round"/>
<path d="M3.73599 12.345L8.86899 16.445C8.95137 16.5109 9.04681 16.5586 9.14899 16.585L14.592 17.975C14.7181 18.0077 14.8507 18.0063 14.9762 17.971C15.1016 17.9357 15.2154 17.8677 15.306 17.774L18.761 14.244" stroke="white" stroke-width="2" stroke-linecap="round" stroke-linejoin="round"/>
<path d="M6.79501 6.466L11.615 5.031C11.7871 4.97948 11.972 4.99264 12.135 5.068L15.381 6.568" stroke="white" stroke-width="2" stroke-linecap="round" stroke-linejoin="round"/>
<path d="M22.585 11.262L20.264 12.448L17.259 6.56798L19.603 5.37098C19.69 5.32632 19.7851 5.29943 19.8826 5.29187C19.9801 5.28432 20.0781 5.29625 20.171 5.32698C20.3593 5.39011 20.5152 5.52482 20.605 5.70198L22.915 10.221C23.0077 10.4031 23.0251 10.6143 22.9633 10.8091C22.9016 11.0039 22.7657 11.1666 22.585 11.262V11.262Z" stroke="white" stroke-width="2" stroke-linecap="round" stroke-linejoin="round"/>
<path d="M3.736 12.345L2.576 11.752L1.416 11.159C1.32571 11.1133 1.24553 11.05 1.18025 10.9726C1.11496 10.8953 1.06591 10.8057 1.036 10.709C0.974527 10.5131 0.992483 10.3008 1.086 10.118L3.395 5.59901C3.4848 5.42185 3.64069 5.28715 3.829 5.22401C3.92186 5.19329 4.01991 5.18135 4.11743 5.18891C4.21495 5.19646 4.30998 5.22335 4.397 5.26801L6.74 6.46601L3.735 12.346L3.736 12.345Z" stroke="white" stroke-width="2" stroke-linecap="round" stroke-linejoin="round"/>
</svg>

<svg
  width="24"
  height="24"
  viewBox="0 0 24 24"
  xmlns="http://www.w3.org/2000/svg"
  fill="none"
  stroke="currentColor"
  stroke-width="2"
  stroke-linecap="round"
  stroke-linejoin="round"
>
  <path d="M20.264 12.448l-1.503 1.796-4.132-3.07-1.202.92a2.963 2.963 0 0 1-1.803.614 2.96 2.96 0 0 1-1.803-.614l-.509-.39a.762.762 0 0 1-.298-.56.782.782 0 0 1 .218-.596l3.675-3.755a.751.751 0 0 1 .531-.225h3.82" />
  <path d="M10.498 20l-2.83-.723a.746.746 0 0 1-.311-.165L5.239 17.23" />
  <path d="M3.736 12.345l5.133 4.1a.746.746 0 0 0 .28.14l5.443 1.39a.736.736 0 0 0 .714-.201l3.455-3.53" />
  <path d="M6.795 6.466l4.82-1.435a.736.736 0 0 1 .52.037l3.246 1.5" />
  <path d="M22.585 11.262l-2.321 1.186-3.005-5.88 2.344-1.197a.737.737 0 0 1 .568-.044.756.756 0 0 1 .434.375l2.31 4.519a.778.778 0 0 1-.33 1.041z" />
  <path d="M3.736 12.345l-1.16-.593-1.16-.593a.754.754 0 0 1-.38-.45.783.783 0 0 1 .05-.591l2.309-4.519a.756.756 0 0 1 .434-.375.737.737 0 0 1 .568.044L6.74 6.466l-3.005 5.88z" />
</svg>
